client/public/static/images/recipient-groups.svg

<svg fill="none" height="37" width="51" xmlns="http://www.w3.org/2000/svg" xmlns:xlink="http://www.w3.org/1999/xlink"><clipPath id="a"><path d="m0 0h10v9h-10z" transform="translate(21.27 5)"/></clipPath><clipPath id="b"><path d="m0 0h10v9h-10z" transform="translate(21.266 24)"/></clipPath><clipPath id="c"><path d="m0 0h13.6v13.6h-13.6z" transform="translate(5.27 21.576)"/></clipPath><g stroke="#4a5568" stroke-linecap="round" stroke-linejoin="round"><path d="m40.345 4.131h-4.526a1.131 1.131 0 0 0 -1.13 1.132v9.05a1.131 1.131 0 0 0 1.13 1.131h6.788a1.131 1.131 0 0 0 1.132-1.13v-6.79l-3.394-3.394z"/><path d="m40.344 4.131v3.394h3.394m-2.26 2.829h-4.525m4.525 2.262h-4.525m1.131-4.526h-1.131m3.387 15.041h-4.524a1.131 1.131 0 0 0 -1.132 1.132v9.05a1.131 1.131 0 0 0 1.132 1.131h6.787a1.131 1.131 0 0 0 1.132-1.13v-6.789l-3.394-3.394z"/><path d="m40.34 23.131v3.394h3.394m-2.26 2.829h-4.524m4.524 2.262h-4.524m1.13-4.526h-1.13m-29.42-13.211v-1.131a2.263 2.263 0 0 1 2.263-2.263h4.526a2.262 2.262 0 0 1 2.262 2.263v1.13m-4.527-5.656a2.263 2.263 0 1 1 0-4.525 2.263 2.263 0 0 1 0 4.525z"/><g clip-path="url(#a)"><path d="m22.27 9.5h8m-2.5-2.625 2.625 2.625-2.625 2.625"/></g><g clip-path="url(#b)"><path d="m22.266 28.288h8m-2.5-2.625 2.625 2.625-2.625 2.625"/></g><g clip-path="url(#c)"><path d="m14.903 33.476v-1.134a2.267 2.267 0 0 0 -2.267-2.266h-4.533a2.267 2.267 0 0 0 -2.267 2.266v1.134m4.532-5.667a2.267 2.267 0 1 0 0-4.533 2.267 2.267 0 0 0 0 4.533zm7.934 5.667v-1.134a2.267 2.267 0 0 0 -1.7-2.193m-2.266-6.799a2.267 2.267 0 0 1 0 4.391"/></g></g></svg>

<svg width="51" height="37" fill="none" xmlns="http://www.w3.org/2000/svg"><path d="M40.345 4.131h-4.526a1.131 1.131 0 0 0-1.13 1.132v9.05a1.131 1.131 0 0 0 1.13 1.131h6.788a1.131 1.131 0 0 0 1.132-1.13V7.524l-3.394-3.394z" stroke="#4A5568" stroke-linecap="round" stroke-linejoin="round"/><path d="M40.344 4.131v3.394h3.394M41.478 10.354h-4.525M41.478 12.616h-4.525M38.084 8.09H36.953M40.34 23.131h-4.524a1.131 1.131 0 0 0-1.132 1.132v9.05a1.131 1.131 0 0 0 1.132 1.131h6.787a1.131 1.131 0 0 0 1.132-1.13v-6.789l-3.394-3.394z" stroke="#4A5568" stroke-linecap="round" stroke-linejoin="round"/><path d="M40.34 23.131v3.394h3.394M41.474 29.354H36.95M41.474 31.616H36.95M38.08 27.09H36.95M7.53 13.879v-1.131a2.263 2.263 0 0 1 2.263-2.263h4.526a2.262 2.262 0 0 1 2.262 2.263v1.13M12.054 8.222a2.263 2.263 0 1 1 0-4.525 2.263 2.263 0 0 1 0 4.525z" stroke="#4A5568" stroke-linecap="round" stroke-linejoin="round"/><g clip-path="url(#a)" stroke="#4A5568" stroke-linecap="round" stroke-linejoin="round"><path d="M22.27 9.5h8M27.77 6.875 30.395 9.5l-2.625 2.625"/></g><g clip-path="url(#b)" stroke="#4A5568" stroke-linecap="round" stroke-linejoin="round"><path d="M22.266 28.288h8M27.766 25.663l2.625 2.625-2.625 2.625"/></g><g clip-path="url(#c)" stroke="#4A5568" stroke-linecap="round" stroke-linejoin="round"><path d="M14.903 33.476v-1.134a2.267 2.267 0 0 0-2.267-2.266H8.103a2.267 2.267 0 0 0-2.267 2.266v1.134M10.368 27.809a2.267 2.267 0 1 0 0-4.533 2.267 2.267 0 0 0 0 4.533zM18.302 33.476v-1.134a2.267 2.267 0 0 0-1.7-2.193M14.336 23.35a2.267 2.267 0 0 1 0 4.391"/></g><defs><clipPath id="a"><path fill="#fff" transform="translate(21.27 5)" d="M0 0h10v9H0z"/></clipPath><clipPath id="b"><path fill="#fff" transform="translate(21.266 24)" d="M0 0h10v9H0z"/></clipPath><clipPath id="c"><path fill="#fff" transform="translate(5.27 21.576)" d="M0 0h13.6v13.6H0z"/></clipPath></defs></svg>
